icons/image-down-filled.svg

<svg viewBox="0 0 24 24"><path fill="currentColor" fill-rule="evenodd" d="M19.1 1.4a1 1 0 0 1 1 1v3.6l.8-.8a1 1 0 1 1 1.4 1.5l-2.4 2.4a1 1 0 0 1-1.5 0l-2.3-2.3a1 1 0 0 1 1.4-1.4l.6.6v-3.6a1 1 0 0 1 1-1Zm-17.7 4.6a4.6 4.6 0 0 1 4.6-4.6h7.8a1 1 0 1 1 0 2h-7.8a2.6 2.6 0 0 0-2.6 2.6v12a2.6 2.6 0 0 0 2.2 2.6l10-9.3a1 1 0 0 1 1.3 0l3.7 3.7v-3a1 1 0 1 1 2 0v6a4.6 4.6 0 0 1-4.6 4.6h-12a4.6 4.6 0 0 1-4.6-4.6zm3.6 1.8a2.8 2.8 0 1 1 5.6 0 2.8 2.8 0 0 1-5.6 0Z" clip-rule="evenodd"/></svg>

<svg viewBox="0 0 24 24"><path fill="currentColor" fill-rule="evenodd" d="M19.1 1.4a1 1 0 0 1 1 1V6l.8-.8a1 1 0 1 1 1.4 1.5L20 9a1 1 0 0 1-1.5 0l-2.3-2.3a1 1 0 0 1 1.4-1.4l.6.6V2.4a1 1 0 0 1 1-1M1.4 6A4.6 4.6 0 0 1 6 1.4h7.8a1 1 0 1 1 0 2H6A2.6 2.6 0 0 0 3.4 6v12a2.6 2.6 0 0 0 2.2 2.6l10-9.3a1 1 0 0 1 1.3 0l3.7 3.7v-3a1 1 0 1 1 2 0v6a4.6 4.6 0 0 1-4.6 4.6H6A4.6 4.6 0 0 1 1.4 18zM5 7.8a2.8 2.8 0 1 1 5.6 0 2.8 2.8 0 0 1-5.6 0" clip-rule="evenodd"/></svg>
